storage/app/icons/tabler/filled/help-square.svg

<!--
version: "2.15"
unicode: "fa40"
-->
<svg
  xmlns="http://www.w3.org/2000/svg"
  width="24"
  height="24"
  viewBox="0 0 24 24"
  fill="currentColor"
>
  <path d="M19 2a3 3 0 0 1 2.995 2.824l.005 .176v14a3 3 0 0 1 -2.824 2.995l-.176 .005h-14a3 3 0 0 1 -2.995 -2.824l-.005 -.176v-14a3 3 0 0 1 2.824 -2.995l.176 -.005h14zm-7 13a1 1 0 0 0 -.993 .883l-.007 .117l.007 .127a1 1 0 0 0 1.986 0l.007 -.117l-.007 -.127a1 1 0 0 0 -.993 -.883zm1.368 -6.673a2.98 2.98 0 0 0 -3.631 .728a1 1 0 0 0 1.44 1.383l.171 -.18a.98 .98 0 0 1 1.11 -.15a1 1 0 0 1 -.34 1.886l-.232 .012a1 1 0 0 0 .111 1.994a3 3 0 0 0 1.371 -5.673z" />
</svg>

<svg xmlns="http://www.w3.org/2000/svg" width="24" height="24" fill="currentColor" viewBox="0 0 24 24"><path d="M19 2a3 3 0 0 1 2.995 2.824L22 5v14a3 3 0 0 1-2.824 2.995L19 22H5a3 3 0 0 1-2.995-2.824L2 19V5a3 3 0 0 1 2.824-2.995L5 2zm-7 13a1 1 0 0 0-.993.883L11 16l.007.127a1 1 0 0 0 1.986 0L13 16.01l-.007-.127A1 1 0 0 0 12 15m1.368-6.673a2.98 2.98 0 0 0-3.631.728 1 1 0 0 0 1.44 1.383l.171-.18a.98.98 0 0 1 1.11-.15 1 1 0 0 1-.34 1.886l-.232.012A1 1 0 0 0 11.997 14a3 3 0 0 0 1.371-5.673"/></svg>
